X:15030
%10231
T:Maple Sugar
C:Ward Allen
M:2/4
L:1/16
K:Cmaj
[C2G2] [E2G2][F2G2]|[C4G4] [C3G3][CA]|[C2G2][F2G2] [E2G2][D2G2]|[E4G4] [E3G3][FG]|[EG][DG][C2G2] [F2A2][E2G2]|
[E2G2][D2G2] [D2G2][E2G2]|[F3A3][EG] [E2G2][DG][EG]|[F2G2][E2G2] [EG][DG][EG][FG]|[EG][DG][C2G2] [E2G2][F2G2]|
[C4G4] [C4G4]|[C4G4] [C3G3][EG]|[F2G2][E2G2] [EG][DG][C2G2]|[E4G4] [E3G3][FG]|
[E2G2][D4G4][E2G2]|[F3A3][EG] [E2G2][B,2D2]|[D2G2][C2G2] [CG]B,CD|[C2G2]:|
|:z2 E,2F,2|[G,4C4] [G,3C3][A,C]|G,2E,2 G,2C2|[E4G4] [E3G3][EG]|[D2G2][C2G2] [F2A2][E2G2]|
[E2G2][D2G2] [D2G2][E2G2]|[F4A4] [E2G2][DG][EG]|[F2G2][E3G3][DG][EG][FG]|[EG][DG][C2G2] E,2F,2|
[G,4C4] [G,3C3][A,C]|G,2E,2 G,2C2|[E4G4] [E3G3][EG]|[D2G2][C2G2] [F2A2][E2G2]|
[E2G2][D2G2] [D2G2
